newicons/scene.svg

<?xml version="1.0" encoding="UTF-8" standalone="no"?>
<svg
   id="b"
   viewBox="0 0 48 48"
   version="1.1"
   sodipodi:docname="Scene.svg"
   xml:space="preserve"
   inkscape:version="1.4 (86a8ad7, 2024-10-11)"
   xmlns:inkscape="http://www.inkscape.org/namespaces/inkscape"
   xmlns:sodipodi="http://sodipodi.sourceforge.net/DTD/sodipodi-0.dtd"
   xmlns="http://www.w3.org/2000/svg"
   xmlns:svg="http://www.w3.org/2000/svg"><sodipodi:namedview
     id="namedview3"
     pagecolor="#ffffff"
     bordercolor="#000000"
     borderopacity="0.25"
     inkscape:showpageshadow="2"
     inkscape:pageopacity="0.0"
     inkscape:pagecheckerboard="0"
     inkscape:deskcolor="#d1d1d1"
     inkscape:zoom="11.387365"
     inkscape:cx="7.4644134"
     inkscape:cy="23.227498"
     inkscape:window-width="1920"
     inkscape:window-height="991"
     inkscape:window-x="-9"
     inkscape:window-y="-9"
     inkscape:window-maximized="1"
     inkscape:current-layer="layer1" /><defs
     id="defs1"><style
       id="style1">.c{fill:none;stroke:#fff;stroke-linecap:round;stroke-linejoin:round;}</style></defs><g
     inkscape:groupmode="layer"
     id="layer1"
     inkscape:label="Layer 1"><g
       id="g6"
       transform="translate(-0.0382915,-0.12518726)"
       style="stroke-width:1;stroke-dasharray:none;stroke:#ffffff;stroke-opacity:1" /><g
       id="g7"
       transform="translate(0.08957005)"
       style="stroke-width:1;stroke-dasharray:none;stroke:#ffffff;stroke-opacity:1" /><path
       id="path2"
       style="stroke:#ffffff;stroke-opacity:1;stroke-width:1;stroke-dasharray:none;fill:none"
       class="c"
       d="M 41.435547,6.7871094 C 40.704799,5.9966482 39.661343,5.5 38.5,5.5 H 9.5 C 8.338657,5.5 7.2952012,5.9966482 6.5644531,6.7871094 a 18.494452,7.1743026 0 0 0 0.00195,0.00195 c -0.00221,0.00239 -0.00365,0.00541 -0.00586,0.00781 A 18.494452,7.1743026 0 0 0 24,11.613281 18.494452,7.1743026 0 0 0 41.439453,6.796875 c -0.0022,-0.0024 -0.0036,-0.00542 -0.0059,-0.00781 a 18.494452,7.1743026 0 0 0 0.002,-0.00195 z M 5.784957,21.042969 h 13.861428 m 8.992187,-0.0059 H 42.5 M 24.146385,15.042969 a 6,6 0 0 0 -1.623047,0.228516 1.5,1.5 0 0 1 -0.630859,1.876953 1.5,1.5 0 0 1 -1.923829,-0.392578 6,6 0 0 0 -1.625,2.800781 1.5,1.5 0 0 1 1.302735,1.486328 1.5,1.5 0 0 1 -1.306641,1.46875 6,6 0 0 0 1.626953,2.816407 1.5,1.5 0 0 1 1.109375,-0.591797 1.5,1.5 0 0 1 0.820313,0.199218 1.5,1.5 0 0 1 0.630859,1.88086 6,6 0 0 0 1.619141,0.226562 6,6 0 0 0 1.632812,-0.230469 1.5,1.5 0 0 1 0.613282,-1.880859 1.5,1.5 0 0 1 0.822265,-0.199219 1.5,1.5 0 0 1 1.111328,0.595704 6,6 0 0 0 1.626953,-2.820313 1.5,1.5 0 0 1 -1.314453,-1.470703 1.5,1.5 0 0 1 1.322266,-1.470703 6,6 0 0 0 -1.638672,-2.828125 1.5,1.5 0 0 1 -1.935547,0.40625 1.5,1.5 0 0 1 -0.615234,-1.875 6,6 0 0 0 -1.625,-0.226563 z m 0.0039,3.716797 a 2.2097087,2.276 0 0 1 2.208984,2.277344 2.2097087,2.276 0 0 1 -2.208984,2.27539 2.2097087,2.276 0 0 1 -2.208984,-2.27539 2.2097087,2.276 0 0 1 2.208984,-2.277344 z M 32.158419,37.5 A 1.054981,1.0549809 0 0 1 31.103438,38.554981 1.054981,1.0549809 0 0 1 30.048457,37.5 1.054981,1.0549809 0 0 1 31.103438,36.445019 1.054981,1.0549809 0 0 1 32.158419,37.5 Z m -14.206876,0 A 1.054981,1.0549809 0 0 1 16.896562,38.554981 1.054981,1.0549809 0 0 1 15.841581,37.5 1.054981,1.0549809 0 0 1 16.896562,36.445019 1.054981,1.0549809 0 0 1 17.951543,37.5 Z M 6.5605469,6.796875 C 6.2372931,7.148247 5.9737527,7.5567337 5.7910156,8.0058594 5.7806349,8.0315944 5.7715762,8.0579872 5.7617188,8.0839844 5.68375,8.2878134 5.6219187,8.4984649 5.578125,8.7167969 5.5620095,8.7979889 5.5521354,8.8819632 5.5410156,8.9648438 5.5172887,9.1400997 5.5,9.3181317 5.5,9.5 v 29 c 0,2.2091 1.7909,4 4,4 H 9.6660156 A 14.334904,12.933276 0 0 1 24,29.566406 14.334904,12.933276 0 0 1 38.333984,42.5 H 38.5 c 2.2091,0 4,-1.7909 4,-4 v -29 c 0,-0.1818683 -0.01729,-0.3599002 -0.04102,-0.5351562 -0.01112,-0.082881 -0.02099,-0.1668549 -0.03711,-0.2480469 -0.04379,-0.218332 -0.105625,-0.4289835 -0.183594,-0.6328125 -0.0099,-0.025997 -0.01892,-0.05239 -0.0293,-0.078125 C 42.026247,7.5567337 41.762707,7.148247 41.439453,6.796875 A 18.494452,7.1743026 0 0 1 24,11.613281 18.494452,7.1743026 0 0 1 6.5605469,6.796875 Z M 38.333984,42.5 A 14.334904,12.933276 0 0 0 24,29.566406 14.334904,12.933276 0 0 0 9.6660156,42.5 Z m -7.652597,-11.469909 2.856904,-4.655278 m -16.21968,4.655278 -2.856902,-4.655278" /></g></svg>

<?xml version="1.0" encoding="UTF-8"?><svg id="b" xmlns="http://www.w3.org/2000/svg" viewBox="0 0 48 48"><defs><style>.e{fill:none;stroke:#fff;stroke-linecap:round;stroke-linejoin:round;}</style></defs><g id="c"><path id="d" class="e" d="M41.4355,6.7871c-.7307-.7905-1.7742-1.2871-2.9355-1.2871H9.5c-1.1613,0-2.2048.4966-2.9355,1.2871.0006.0006.0013.0013.0019.0019-.0022.0024-.0037.0054-.0059.0078,2.5836,2.8801,9.5783,4.8119,17.4395,4.8164,7.8611-.0046,14.8558-1.9363,17.4395-4.8164-.0022-.0024-.0036-.0054-.0059-.0078.0007-.0006.0013-.0013.002-.002ZM5.785,21.043h13.8614M28.6386,21.0371h13.8614M24.1464,15.043c-.5489.0016-1.095.0785-1.623.2285.2912.6953.0212,1.4987-.6309,1.877-.6497.3653-1.4692.1981-1.9238-.3926-.7881.767-1.3502,1.7359-1.625,2.8008.7454.0989,1.3024.7344,1.3027,1.4863-.0093.7465-.5663,1.3726-1.3066,1.4688.2727,1.0707.8357,2.0453,1.627,2.8164.2653-.3502.6708-.5665,1.1094-.5918.2869-.0135.5716.0557.8203.1992.654.3785.9244,1.1845.6309,1.8809.5268.149,1.0716.2253,1.6191.2266.5523-.0013,1.1017-.0789,1.6328-.2305-.2966-.692-.0342-1.4967.6133-1.8809.2493-.1439.5347-.2131.8223-.1992.44.0257.8464.2435,1.1113.5957.7919-.7722,1.355-1.7482,1.627-2.8203-.7442-.0927-1.3056-.7208-1.3145-1.4707.0094-.7525.575-1.3816,1.3223-1.4707-.274-1.0762-.8412-2.0552-1.6387-2.8281-.4519.6018-1.2798.7756-1.9355.4062-.6452-.3831-.908-1.1841-.6152-1.875-.5287-.1496-1.0755-.2258-1.625-.2266ZM24.1503,18.7598c1.2204.0004,2.2094,1.0197,2.209,2.2767v.0006c-.0003,1.2565-.9891,2.275-2.209,2.2754-1.2199-.0004-2.2087-1.0189-2.209-2.2754-.0007-1.257.988-2.2766,2.2084-2.2773h.0006ZM32.1584,37.5c0,.5826-.4723,1.055-1.055,1.055h0c-.5826,0-1.055-.4723-1.055-1.055h0c0-.5826.4723-1.055,1.055-1.055h0c.5826,0,1.055.4723,1.055,1.055h0ZM17.9515,37.5c0,.5826-.4723,1.055-1.055,1.055h0c-.5826,0-1.055-.4723-1.055-1.055h0c0-.5826.4723-1.055,1.055-1.055h0c.5826,0,1.055.4723,1.055,1.055h0ZM6.5605,6.7969c-.3233.3514-.5868.7599-.7695,1.209-.0104.0257-.0194.0521-.0293.0781-.078.2038-.1398.4145-.1836.6328-.0161.0812-.026.1652-.0371.248-.0237.1753-.041.3533-.041.5352v29c0,2.2091,1.7909,4,4,4h.166c-.0002-7.1427,6.4173-12.9331,14.334-12.9336,7.9167.0005,14.3342,5.7909,14.334,12.9336h.166c2.2091,0,4-1.7909,4-4V9.5c0-.1819-.0173-.3599-.041-.5352-.0111-.0829-.021-.1669-.0371-.248-.0438-.2183-.1056-.429-.1836-.6328-.0099-.026-.0189-.0524-.0293-.0781-.1827-.4491-.4463-.8576-.7695-1.209-2.5836,2.8801-9.5783,4.8119-17.4395,4.8164-7.8611-.0046-14.8558-1.9363-17.4395-4.8164ZM38.334,42.5c.0002-7.1427-6.4173-12.9331-14.334-12.9336-7.9167.0005-14.3342,5.7909-14.334,12.9336h28.668ZM30.6814,31.0301l2.8569-4.6553M17.3186,31.0301l-2.8569-4.6553"/></g></svg>
